X:1
T:Jesus, Alegria dos Homens
T:Jesus, Alegria dos Homens
T:Johann Sebastian Bach
T:Arranjo: Myra Hess / Adaptação: Mauricio Henrique Passos 
T:Johann Sebastian Bach
T:Johann Sebastian Bach
T:Johann Sebastian Bach
T:Johann Sebastian Bach
T:Johann Sebastian Bach
T:Johann Sebastian Bach
T:Johann Sebastian Bach
C:Johann Sebastian Bach
Z:Mauricio Henrique Passos
Z:Johann Sebastian Bach
%%score 1 { ( 2 3 ) | 4 }
L:1/8
Q:1/4=70
M:3/4
K:G
V:1 treble nm="Flauta Transversal" snm="Fl."
V:2 treble nm="Piano" snm="Pno."
V:3 treble 
V:4 bass 
V:1
 z6 | z6 | z6 | z6 | z6 | z6 | z6 | z6 | B4 c2 | d4 d2 | c4 B2 | A2 A2 z2 | z6 | B4 c2 | d4 B2 | %15
 (AB/c/) (B2 A2) | G4 z2 | z6 | z6 | z6 | z6 | z6 | z6 | B4 c2 | d4 d2 | c4 B2 | A2 A2 z2 | z6 | %28
 B4 c2 | d4 B2 | (AB/c/) (B2 c2) | G4 z2 | z6 | z6 | z6 | z6 | z6 | z6 | z6 | A4 B2 | c4 c2 | %41
 (B3 c/d/) B2 | A2 A2 z2 | z6 | z6 | c4 d2 | e4 e2 | (d3 e/=f/) d2 | c2 c2 z2 | z6 | z6 | B4 c2 | %52
 d4 d2 | c2 B4 | A4 z2 | z6 | B4 c2 | d4 B2 | AB/c/ A4 | G6 | z6 | z6 | z6 | z6 | z6 | z6 | z6 | %67
 z6 | z6 | z6 | z6 |[Q:1/4=110] z6 |] %72
V:2
 z2 (3Bdc (3ced | (3dgf (3gdB (3GAB | (3cde (3dcB (3ABG | (3FGA (3DFA (3cBA | (3BGA (3Bdc (3ced | %5
 (3dgf (3gdB (3GAB | (3Edc (3BAG (3DGF | (3GBd (3gdB (3GBd | [Gg]2 [GB]2 [EGc]2 | [Ad]4 [Bd]2 | %10
 c4 [DGB]2 | z2 (3FAG (3AcB | (3cAF (3DFA (3cBA | (3BGA (3Bdc (3ced | (3dgf (3gdB (3GAB | %15
 (3Edc (3BAG (3DGF | (3GBA (3Bdc (3ced | (3dgf (3gdB (3GAB | (3cde (3dcB (3ABG | %19
 (3FGA (3DFA (3cBA | (3BGA (3Bdc (3ced | (3dgf (3gdB (3GAB | (3Edc (3BAG (3DGF | G2 [GB]2 [Gc]2 | %24
 [Ad]4 [Bd]2 | c4 [DGB]2 | (3z DE (3FAG (3AcB | (3cAF (3DFA (3cBA | (3BGA (3Bdc (3ced | %29
 (3dgf (3gdB (3GAB | (3Edc (3BAG (3DGF | (3GBA (3Bdc (3ced | (3dgf (3gdB (3GAB | %33
 (3cde (3dcB (3ABG | (3FGA (3DFA (3cBA | (3BGA (3Bdc (3ced | (3dgf (3gdB (3GAB | %37
 (3Edc (3BAG (3DGF | (3GBd (3gdB (3GB^c | (3dDE (3AB^G (3GBA | (3AcB (3cAE (3CDE | %41
 (3=Fdc (3dBG (3E=FG | (3AcB (3ced (3d=fe | (3ea^g (3aec (3ABc | (3=fed (3cBA (3EA^G | %45
 (3Ace a z z2 | (3z cd (3eg=f (3g_ba | (3ac'b (3c'a=f (3de=f | (3eg=f (3gec (3GA_B | %49
 (3AcB (3cA=F (3DEF | (3ECD (3EGF (3GBA | (3BGA (3Bdc (3ced | (3dgf (3gdB (3GAB | %53
 (3cde (3dcB (3ABG | (3FDE (3FAG (3AcB | (3cAF (3DFA (3cBA | (3BGA (3Bdc (3ced | %57
 (3dgf (3gdB (3GAB | (3Edc (3BAG (3DGF | (3GBd (3gdB (3GBd | (3fdB (3GBd (3ecA | %61
 (3FAc (3dBG (3EGB | (3cAF (3DFA (3cBA | (3BGA (3Bdc (3ced | (3dgf (3gdB (3GAB | %65
 (3cde (3dcB (3ABG | (3FGA (3DFA (3cBA | (3BGA (3Bdc (3ced | (3dgf (3gdB (3GAB | %69
 (3Edc (3BAG (3DGF | G6 | P^e3 z3 |] %72
V:3
 (3z GA (3:2:2G2 F (3:2:2G2 A | (3:2:2B2 A (3:2:2B2 G (3:2:2E2 D | %2
 (3:2:2E2 F (3:2:2G2 D (3:2:2E2 B, | (3:2:2C2 D (3:2:2A,2 F (3:2:2F2 F | %4
 (3:2:2D2 F (3:2:2G2 F (3:2:2E2 A | (3:2:2G2 A (3:2:2B2 G (3:2:2E2 G | %6
 (3:2:2C2 F (3:2:2G2 E (3:2:2A,2 C | (3:2:2B,2 G (3:2:2B2 D (3:2:2B,2 G | x6 | x6 | x6 | %11
 (3z DE (3:2:2D2 A, (3:2:2D2 D | (3:2:2F2 F (3:2:2D2 D (3:2:2D2 F | %13
 (3:2:2G2 F (3:2:2G2 F (3:2:2E2 A | (3:2:2B2 A (3:2:2G2 F (3:2:2E2 G | %15
 (3:2:2E2 G (3:2:2F2 E (3:2:2C2 C | (3:2:2C2 G (3:2:2G2 F (3:2:2G2 A | %17
 (3:2:2B2 A (3:2:2B2 G (3:2:2E2 D | (3:2:2E2 F (3:2:2G2 D (3:2:2E2 B, | %19
 (3:2:2C2 D (3:2:2A,2 F (3:2:2F2 F | (3:2:2D2 D (3:2:2G2 F (3:2:2E2 A | %21
 (3:2:2B2 A (3:2:2B2 G (3:2:2E2 G | (3:2:2C2 F (3:2:2G2 E (3:2:2A,2 C | x6 | x6 | G2 D2 z2 | %26
 (3:2:2D2 D (3:2:2D2 E (3:2:2F2 G | (3:2:2A2 F (3:2:2D2 D (3:2:2D2 F | %28
 (3:2:2G2 G (3:2:2G2 F (3:2:2G2 A | (3:2:2B2 A (3:2:2G2 F (3:2:2E2 G | %30
 (3Edc (3:2:2F2 E (3:2:2C2 C | (3:2:2B,2 D (3:2:2G2 F (3:2:2G2 A | %32
 (3:2:2B2 A (3:2:2B2 G (3:2:2E2 D | (3:2:2E2 F (3:2:2G2 D (3:2:2E2 B, | %34
 (3:2:2C2 D (3:2:2A,2 G (3:2:2F2 F | (3:2:2G2 F (3:2:2G2 F (3:2:2E2 A | %36
 (3:2:2B2 A (3:2:2B2 G (3:2:2E2 G | (3:2:2C2 F (3:2:2G2 E (3:2:2A,2 C | %38
 (3:2:2D2 G (3:2:2B2 B (3:2:2G2 G | (3:2:2D2 z (3:2:2D2 z (3:2:2D2 z | %40
 (3:2:2E2 D (3:2:2E2 E (3CDE | (3:2:2D2 E (3:2:2=F2 ^F (3:2:2E2 D | %42
 (3:2:2C2 C (3:2:2A2 ^G (3:2:2A2 B | c2 c2 =F2 | (3:2:2A2 ^G (3:2:2A2 F (3:2:2B,2 D | A4 G2 | %46
 G2 c2 c2 | (3:2:2f2 g (3:2:2a2 ^f (3:2:2d2 d | (3:2:2c2 c (3:2:2c2 G (3:2:2E2 D | %49
 (3:2:2C2 E (3:2:2=F2 F (3:2:2D2 D | (3ECD (3EGD (3:2:2D2 F | (3:2:2G2 G (3:2:2G2 G (3:2:2G2 A | %52
 (3:2:2B2 A (3:2:2B2 G (3:2:2E2 D | (3:2:2G2 F (3:2:2G2 G (3:2:2E2 E | %54
 (3:2:2C2 ^C (3:2:2D2 E (3:2:2F2 G | (3:2:2A2 F (3:2:2D2 D (3:2:2D2 F | %56
 (3:2:2G2 G (3:2:2G2 F (3:2:2G2 A | (3:2:2B2 A (3:2:2G2 F (3:2:2E2 G | %58
 (3:2:2E2 G (3:2:2F2 E (3:2:2C2 C | (3:2:2B,2 G (3:2:2B2 G (3:2:2D2 G | %60
 (3:2:2B2 G (3:2:2G2 G (3:2:2E2 C | (3:2:2A,2 F (3:2:2G2 D (3:2:2B,2 E | %62
 (3:2:2D2 A, (3:2:2A,2 A (3:2:2F2 D | (3:2:2G2 G (3:2:2G2 F (3:2:2G2 A | %64
 (3:2:2B2 A (3:2:2B2 G (3:2:2E2 D | (3:2:2E2 F (3:2:2G2 D (3:2:2E2 B, | %66
 (3:2:2C2 D (3:2:2A,2 G (3:2:2A2 F | (3:2:2G2 F (3:2:2G2 F (3:2:2G2 A | %68
 (3:2:2B2 A (3:2:2B2 G (3:2:2E2 G | (3:2:2C2 F (3:2:2G2 E (3:2:2A,2 C | [B,D]6 | x6 |] %72
V:4
 G,,2 [G,,G,]2 [E,,E,]2 | [B,,,B,,]2 [E,,E,]2 E,,2 | [A,,,A,,]2 [B,,,B,,]2 [C,,C,]2 | %3
 [D,,D,]2 [F,,F,]2 [D,,D,]2 | [G,,G,]2 [G,,G,]2 [C,,C,]2 | [B,,,B,,]2 [E,,E,]2 [D,,D,]2 | %6
 [C,,C,]2 [^C,,^C,]2 [D,,D,]2 | G,,2 (3:2:2z2 G, (3:2:2D,2 B,, | G,,2 F,2 E,2 | %9
 [F,A,]2 [E,G,]2 [D,F,]2 | [E,G,]2 [F,A,D]2 G,2 | D,2 (3:2:2D,2 D, (3:2:2D,2 D, | %12
 D,,2 (3:2:2z2 D, (3:2:2D,2 D, | G,2 F,2 E,2 | B,,2 B,,2 E,2 | C,2 D,2 D,2 | G,,2 G,,2 E,,2 | %17
 B,,2 E,2 E,,2 | A,,2 B,,2 C,2 | D,2 F,2 D,2 | G,2 G,2 C,2 | B,,2 E,2 D,2 | C,2 ^C,2 D,2 | %23
 G,,2 F,2 E,2 | [F,A,]2 [E,G,]2 [D,F,]2 | [E,G,]2 [F,A,]2 [G,B,]2 | D,2 (3:2:2D,2 D, (3:2:2D,2 D, | %27
 D,,2 (3:2:2z2 D, (3:2:2D,2 D, | G,2 F,2 E,2 | B,,2 B,,2 E,2 | C,2 D,2 D,2 | G,,2 G,2 E,2 | %32
 B,,2 E,2 E,,2 | A,,2 B,,2 C,2 | D,2 F,2 D,2 | G,2 G,2 C,2 | B,,2 E,2 D,2 | C,2 ^C,2 D,2 | %38
 G,,2 (3:2:2z2 G, (3:2:2F,2 E, | D,2 C,2 B,,2 | A,,2 A,G, =F,E, | D,2 B,,2 E,2 | A,,2 =F,,2 D,,2 | %43
 C,,2 =F,,2 E,,2 | [D,,D,]2 [^D,,^D,]2 [E,,E,]2 | [A,,A,]2 [A,,A,]2 [B,,B,]2 | [C,C]2 A,2 E,2 | %47
 [=F,A,]2 [D,,D,]2 [G,D]2 | [C,C]2 [E,C]2 C,2 | [=F,,=F,]2 [D,,D,]2 [G,,G,]2 | %50
 [C,,C,]2 (3:2:2z2 C, (3:2:2B,,2 D, | G,,2 [G,,G,]2 [E,,E,]2 | [B,,,B,,]2 E,,2 [E,,E,]2 | %53
 [A,,,A,,]2 [B,,,B,,]2 [C,,C,]2 | [D,,D,]2 (3:2:2z2 D, (3:2:2D,2 D, | %55
 [D,,D,]2 (3:2:2z2 D, (3:2:2D,2 D, | [G,,G,]2 [F,,F,]2 [E,,E,]2 | [B,,,B,,]2 [B,,,B,,]2 [E,,E,]2 | %58
 [C,,C,]2 [D,,D,]2 [D,,D,]2 | [G,,,G,,]6 | [G,,,G,,]6 | [G,,,G,,]2 [G,,,G,,]4 | [G,,,G,,]6 | %63
 [G,D]2 [G,,G,]2 [E,,E,]2 | [B,,,B,,]2 [E,,E,]2 E,,2 | [A,,,A,,]2 [B,,,B,,]2 [C,,C,]2 | %66
 [D,,D,]2 [F,,F,]2 [D,,D,]2 | [G,,G,]2 [G,,G,]2 [C,,C,]2 | [B,,,B,,]2 [E,,E,]2 [D,,D,]2 | %69
 [C,,C,]2 [^C,,^C,]2 [D,,D,]2 | [G,,,G,,]6 | z6 |] %72

